pro/src/icons/full-play.svg

<svg width="48" height="48" viewBox="0 0 48 48" fill="none" xmlns="http://www.w3.org/2000/svg">
<path id="icon" fill-rule="evenodd" clip-rule="evenodd" d="M24 44C35.0457 44 44 35.0457 44 24C44 12.9543 35.0457 4 24 4C12.9543 4 4 12.9543 4 24C4 35.0457 12.9543 44 24 44ZM22.1094 31.927L31.5039 25.6641C32.6913 24.8724 32.6913 23.1275 31.5038 22.3359L22.1094 16.0729C20.7803 15.1868 19 16.1396 19 17.737V30.2629C19 31.8603 20.7803 32.8131 22.1094 31.927Z" fill="currentColor"/>
</svg>

<svg xmlns="http://www.w3.org/2000/svg" width="48" height="48" fill="none"><path id="icon" fill="currentColor" fill-rule="evenodd" d="M24 44c11.046 0 20-8.954 20-20S35.046 4 24 4 4 12.954 4 24s8.954 20 20 20m-1.89-12.073 9.394-6.263a2 2 0 0 0 0-3.328l-9.395-6.263C20.78 15.187 19 16.14 19 17.737v12.526c0 1.597 1.78 2.55 3.11 1.664" clip-rule="evenodd"/></svg>
